img/svg/stone-shape-5.svg

<svg width="36" height="36" viewBox="0 0 36 36" fill="none" xmlns="http://www.w3.org/2000/svg"><path d="M26 18c0 10-8 16-8 16s-8-6-8-16 8-16 8-16 8 6 8 16zm-2 8l-4 4" stroke="#A39D94" stroke-miterlimit="10"/><path d="M18 2l2 5 2.986 17L24 26" stroke="#A39D94" stroke-miterlimit="10"/><path d="M18 34l1.986-5.014L23 13l1-3-4-4m-7.524 21.357L16 30m2-28l-2 5-3.014 17-.876 2.665" stroke="#A39D94" stroke-miterlimit="10"/><path d="M26 18l-3.014 6-2.382 2L18 28l-2.571-2-2.443-2L10 18m0 0l3-5 2-2 3-3 3 3 2 2 3 5M21 5l-3 3-3-3m3 23l-3 2.986m6 0L18 28" stroke="#A39D94" stroke-miterlimit="10"/><path d="M16 6l-4 4 1 3 2.986 15.986L18 34" stroke="#A39D94" stroke-miterlimit="10"/></svg>

<svg width="36" height="36" viewBox="0 0 36 36" fill="none" xmlns="http://www.w3.org/2000/svg">
<path d="M26 18C26 28 18 34 18 34C18 34 10 28 10 18C10 8 18 2 18 2C18 2 26 8 26 18Z" stroke="#A39D94" stroke-miterlimit="10"/>
<path d="M24 26L20 30" stroke="#A39D94" stroke-miterlimit="10"/>
<path d="M18 2L20 7L22.986 24L24 26" stroke="#A39D94" stroke-miterlimit="10"/>
<path d="M18 34L19.986 28.986L23 13L24 10L20 6" stroke="#A39D94" stroke-miterlimit="10"/>
<path d="M12.4756 27.3574L15.9996 30.0004" stroke="#A39D94" stroke-miterlimit="10"/>
<path d="M18.0004 2L16.0004 7L12.9864 24L12.1104 26.665" stroke="#A39D94" stroke-miterlimit="10"/>
<path d="M26 18L22.986 24L20.604 26L18 28L15.429 26L12.986 24L10 18" stroke="#A39D94" stroke-miterlimit="10"/>
<path d="M10 18L13 13L15 11L18 8L21 11L23 13L26 18" stroke="#A39D94" stroke-miterlimit="10"/>
<path d="M21 5L18 8L15 5" stroke="#A39D94" stroke-miterlimit="10"/>
<path d="M18 28L15 30.986" stroke="#A39D94" stroke-miterlimit="10"/>
<path d="M21 30.986L18 28" stroke="#A39D94" stroke-miterlimit="10"/>
<path d="M16 6L12 10L13 13L15.986 28.986L18 34" stroke="#A39D94" stroke-miterlimit="10"/>
</svg>
